X:1
T:Title
%%score { 1 | 2 }
L:1/8
M:4/4
K:G
V:1 treble nm="Grand Piano"
V:2 treble 
V:1
 z4 z2[Q:1/4=100] Bc | d2 ed B2 [DA][DG] | [CE] [EG]2 [CE] [B,D]2 [B,D][B,D] | G2 Bd e2 dB | %4
 [FA]6 Bc | d2 ed B2 [DA][DG] | [CE] [EG]2 [CE] [B,D]2 de | d2 BG B2 AA |[M:3/4] [B,DG]6 | %9
[M:1/4] Bc |[M:4/4] d2 de d2 AB | [Fc]2 [Fc][Fd] [Fc]2 [FA][FA] | B2 Bd e d2 B | [FA]6 Bc | %14
 d2 ed B2 [DA][DG] | [CE] [EG]2 [CE] [B,D]2 de | d2 BG B2 AA |[M:3/4] [B,DG]6 |] %18
V:2
 z4 z2 [G,D][G,A,D] | [G,B,G]2 [G,CG][G,B,G][K:bass] [G,D]2 [B,,G,][B,,G,] | %2
 [C,G,] [C,C]2 [C,G,] [G,,G,]2 [G,,G,][G,,G,] | [G,B,D]2 [G,DG][G,B,G] [G,CG]2 [G,B,G][G,DG] | %4
 [D,D]6 [G,G][G,A,G] | [G,B,G]2 [G,CG][G,B,G][K:bass] [G,D]2 [B,,G,][B,,G,] | %6
 [C,G,] [C,C]2 [C,G,] [G,,G,]2[K:treble] [G,B,G][G,CG] | %7
 [G,B,G]2 [G,DG][G,B,D][K:bass] [D,D]2 [D,CD][D,CD] |[M:3/4] G,,6 |[M:1/4][K:treble] [G,G][G,A,G] | %10
[M:4/4] [G,B,G]2 [G,B,G][G,CG] [G,B,G]2 [A,CF][G,B,G] | [D,A,]2 [D,A,][D,B,] [D,A,]2 [D,D][D,D] | %12
 [G,DG]2 [G,DG][G,B,G] [G,CG] [G,B,G]2 [G,DG] | [D,D]6 [G,G][G,A,G] | %14
 [G,B,G]2 [G,CG][G,B,G] [G,DG]2[K:bass] [B,,G,][B,,G,] | %15
 [C,G,] [C,C]2 [C,G,] [G,,G,]2[K:treble] [G,B,G][G,CG] | %16
 [G,B,G]2 [G,DG][K:bass][G,B,D] [D,D]2 [D,CD][D,CD] |[M:3/4] G,,6 |] %18

